X:1
T:Title
%%score { 1 | ( 2 3 ) }
L:1/8
Q:1/4=100
M:6/8
K:C
V:1 treble nm="Grand Piano"
V:2 bass 
V:3 bass 
V:1
 [CE]2 [DF] [EG]2 [Ec] | [Ac]B[CFA] [CEG]3 | [B,DG]2 [B,DF] [B,DF]2 [B,FA] | [FA]2 [EG] [EG]3 | %4
w: Charles~H.~Gabriel * * *||||
 [CE]2 [DF] [EG]2 [Ec] | [Ac]B[CFA] [CEG]3 | [CEA]2 [CEA] [G,DG]2 [Ec] | BG[CDA] [B,DG]3 | %8
w: ||||
 [DFB]2 [DFB] [DFB]2 [B,FB] | [CFA]2 [CEG] [CEG]3 | [B,DG]2 [B,DF] [B,DF]2 [B,FA] | %11
w: |||
 [FA]2 [EG] [EG]3 | [Ec]2 [Ec] [Ge][Fd][Ec] | [Gc]2 [GB] A3 | c2 A G2 [Ec] | [CE]2 [B,D] C3 |] %16
w: |||||
V:2
 [C,G,]2 [C,G,] [C,C]2 [C,C] | .[F,C]3 z3 | G,,2 G,, G,,2 G,, | [C,C]2 [C,C] [C,C]3 | %4
 [C,G,]2 [C,G,] [C,C]2 [C,C] | .[F,C]3 z3 | A,,2 A,, B,,2 [C,G,] | .[D,D]3 z3 | G,2 G, G,2 G, | %9
 C,2 C, C,3 | G,,2 G,, G,,2 G,, | [C,C]2 [C,C] [C,C]3 | [C,G,]2 [C,G,] [C,C]2 [C,C] | %13
 [E,C]2 [E,C] [F,CF]3 | [F,A,F]2 [F,CF] [E,C]2 [C,G,] | [G,,G,]2 [G,,F,] [C,E,]3 |] %16
V:3
 x6 | z GF, C,3 | x6 | x6 | x6 | z GF, C,3 | x6 | G,B,D, G,,3 | x6 | x6 | x6 | x6 | x6 | x6 | x6 | %15
 x6 |] %16

